dist/img/cash-icon.svg

<svg width="22" height="14" viewBox="0 0 22 14" fill="none" xmlns="http://www.w3.org/2000/svg">
<path d="M16.175 13.9H1.22499C0.879994 13.9 0.649994 13.67 0.649994 13.325V5.27501C0.649994 4.93001 0.879994 4.70001 1.22499 4.70001H16.175C16.52 4.70001 16.75 4.93001 16.75 5.27501V13.325C16.75 13.67 16.52 13.9 16.175 13.9ZM1.79999 12.75H15.6V5.85001H1.79999V12.75Z" fill="#316193"/>
<path d="M2.94998 5.27499V2.97499C2.94998 2.62999 3.17998 2.39999 3.52498 2.39999H18.475C18.82 2.39999 19.05 2.62999 19.05 2.97499V11.025C19.05 11.37 18.82 11.6 18.475 11.6H16.175V10.45H17.9V3.54999H4.09998V5.27499H2.94998Z" fill="#316193"/>
<path d="M8.69998 12.175C7.08998 12.175 5.82498 10.91 5.82498 9.30002C5.82498 7.69002 7.08998 6.42502 8.69998 6.42502C10.31 6.42502 11.575 7.69002 11.575 9.30002C11.575 10.91 10.31 12.175 8.69998 12.175ZM8.69998 7.57502C7.77998 7.57502 6.97498 8.38002 6.97498 9.30002C6.97498 10.22 7.77998 11.025 8.69998 11.025C9.61998 11.025 10.425 10.22 10.425 9.30002C10.425 8.38002 9.61998 7.57502 8.69998 7.57502Z" fill="#316193"/>
<path d="M5.25 2.97501V0.675006C5.25 0.330006 5.48 0.100006 5.825 0.100006H20.775C21.12 0.100006 21.35 0.330006 21.35 0.675006V8.72501C21.35 9.07001 21.12 9.30001 20.775 9.30001H18.475V8.15001H20.2V1.25001H6.4V2.97501H5.25Z" fill="#316193"/>
</svg>

<svg width="22" height="14" fill="none" xmlns="http://www.w3.org/2000/svg"><path d="M16.175 13.9H1.225c-.345 0-.575-.23-.575-.575v-8.05c0-.345.23-.575.575-.575h14.95c.345 0 .575.23.575.575v8.05c0 .345-.23.575-.575.575zM1.8 12.75h13.8v-6.9H1.8v6.9z" fill="#316193"/><path d="M2.95 5.275v-2.3c0-.345.23-.575.575-.575h14.95c.345 0 .575.23.575.575v8.05c0 .345-.23.575-.575.575h-2.3v-1.15H17.9v-6.9H4.1v1.725H2.95z" fill="#316193"/><path d="M8.7 12.175A2.847 2.847 0 0 1 5.825 9.3 2.847 2.847 0 0 1 8.7 6.425 2.847 2.847 0 0 1 11.575 9.3 2.847 2.847 0 0 1 8.7 12.175zm0-4.6c-.92 0-1.725.805-1.725 1.725s.805 1.725 1.725 1.725 1.725-.805 1.725-1.725S9.62 7.575 8.7 7.575zm-3.45-4.6v-2.3C5.25.33 5.48.1 5.825.1h14.95c.345 0 .575.23.575.575v8.05c0 .345-.23.575-.575.575h-2.3V8.15H20.2v-6.9H6.4v1.725H5.25z" fill="#316193"/></svg>
